svg/kimai.svg

<svg xmlns="http://www.w3.org/2000/svg" xml:space="preserve" viewBox="0 0 512 512"><linearGradient id="kimai_svg__a" x1="934.777" x2="934.108" y1="690.901" y2="286.126" gradientTransform="translate(-831.23 -279.94)scale(1.1636)" gradientUnits="userSpaceOnUse"><stop offset="0" style="stop-color:#f2f2f2"/><stop offset="1" style="stop-color:#f2f2f2"/></linearGradient><circle cx="256" cy="256" r="256" style="fill:url(#kimai_svg__a)"/><radialGradient id="kimai_svg__b" cx="875.876" cy="396.261" r="188.047" gradientTransform="matrix(1.3584 0 0 1.652 -933.757 -397.458)" gradientUnits="userSpaceOnUse"><stop offset="0" style="stop-color:#01fd00"/><stop offset="1" style="stop-color:#009d39"/></radialGradient><circle cx="256" cy="256" r="226.7" style="fill:url(#kimai_svg__b)"/><path d="M256 484.4c-61 0-118.4-23.8-161.5-66.9S27.6 317 27.6 256 51.4 137.6 94.5 94.5c43.1-43.2 100.5-67 161.5-67s118.4 23.8 161.5 66.9 66.9 100.5 66.9 161.5-23.8 118.4-66.9 161.5c-43.1 43.3-100.4 67-161.5 67M256 31C132 31 31 131.9 31 256s100.9 225 225 225c124 0 225-100.9 225-225S380.1 31 256 31" style="fill:#fff"/><radialGradient id="kimai_svg__c" cx="892.004" cy="354.041" r="65.314" gradientTransform="matrix(2.2453 -1.2963 1.344 2.3279 -2265.712 670.932)" gradientUnits="userSpaceOnUse"><stop offset="0" style="stop-color:#f9f9f9"/><stop offset="1" style="stop-color:#fff"/></radialGradient><path d="m201.6 351.9 150-87.3-150-87.3z" style="fill-rule:evenodd;clip-rule:evenodd;fill:url(#kimai_svg__c)"/><path d="M347 126.5c-4.4-2.9-5.6-8.8-2.7-13.2l13.5-20.5c2.9-4.4 8.8-5.6 13.2-2.7s5.6 8.8 2.7 13.2l-13.5 20.5c-2.9 4.4-8.8 5.6-13.2 2.7m50.8 56.6c-2.4-4.7-.6-10.4 4.1-12.9l21.8-11.2c4.7-2.4 10.4-.6 12.9 4.1 2.4 4.7.6 10.4-4.1 12.9l-21.9 11.3c-4.7 2.4-10.4.5-12.8-4.2m5.1 75c0-6.8 5.5-12.3 12.3-12.3h31.4c6.8 0 12.3 5.5 12.3 12.3s-5.5 12.3-12.3 12.3h-31.4c-6.8 0-12.3-5.5-12.3-12.3m-8.2 77.1c2.5-4.6 8.3-6.4 12.9-3.9l21.6 11.6c4.6 2.5 6.4 8.3 3.9 12.9s-8.3 6.4-12.9 3.9l-21.6-11.6c-4.7-2.5-6.4-8.3-3.9-12.9m-31.9 95.3c-4.5 2.8-10.4 1.4-13.1-3.1l-12.9-20.9c-2.8-4.5-1.4-10.4 3.1-13.1 4.5-2.8 10.4-1.4 13.1 3.1l12.9 20.9c2.8 4.4 1.4 10.3-3.1 13.1m-106.4 30c-6.8 0-12.3-5.5-12.3-12.3v-31.4c0-6.8 5.5-12.3 12.3-12.3s12.3 5.5 12.3 12.3v31.4c-.1 6.8-5.6 12.3-12.3 12.3m-113.9-33.2c-4.4-2.9-5.7-8.8-2.8-13.2l13.3-20.6c2.9-4.4 8.8-5.7 13.2-2.8s5.7 8.8 2.8 13.2l-13.3 20.6c-2.9 4.4-8.8 5.6-13.2 2.8m-70.1-77.5c-2.4-4.7-.6-10.4 4.1-12.9l21.8-11.2c4.7-2.4 10.4-.6 12.9 4.1 2.4 4.7.6 10.4-4.1 12.9l-21.8 11.2c-4.8 2.4-10.5.6-12.9-4.1m-21-91.7c0-6.8 5.5-12.3 12.3-12.3h31.4c6.8 0 12.3 5.5 12.3 12.3s-5.5 12.3-12.3 12.3H63.7c-6.8 0-12.3-5.5-12.3-12.3m25.7-102.7c2.5-4.6 8.3-6.4 12.9-3.9l21.6 11.6c4.6 2.5 6.4 8.3 3.9 12.9s-8.3 6.4-12.9 3.9L81 168.3c-4.7-2.5-6.4-8.2-3.9-12.9m94.1-35.9c-4.5 2.8-10.4 1.4-13.1-3.1l-13-20.8c-2.8-4.5-1.4-10.4 3.1-13.1 4.5-2.8 10.4-1.4 13.1 3.1l13 20.8c2.8 4.4 1.4 10.3-3.1 13.1m102.5-9.5c-6.8 0-12.3-5.5-12.3-12.3V66.3c0-6.8 5.5-12.3 12.3-12.3S286 59.5 286 66.3v31.4c0 6.8-5.5 12.3-12.3 12.3m-35.8 0c-6.8 0-12.3-5.5-12.3-12.3V66.3c0-6.8 5.5-12.3 12.3-12.3s12.3 5.5 12.3 12.3v31.4c0 6.8-5.5 12.3-12.3 12.3" style="opacity:.5;fill-rule:evenodd;clip-rule:evenodd;fill:#c7efc4"/></svg>

<?xml version="1.0" encoding="utf-8"?>
<!-- Generator: Adobe Illustrator 28.2.0, SVG Export Plug-In . SVG Version: 6.00 Build 0)  -->
<svg version="1.1" id="Layer_1" xmlns="http://www.w3.org/2000/svg" xmlns:xlink="http://www.w3.org/1999/xlink" x="0px" y="0px"
	 viewBox="0 0 512 512" style="enable-background:new 0 0 512 512;" xml:space="preserve">
<style type="text/css">
	.st0{fill:url(#SVGID_1_);}
	.st1{fill:url(#SVGID_00000085226235334090046930000012654757700578666923_);}
	.st2{fill:#FFFFFF;}
	.st3{fill-rule:evenodd;clip-rule:evenodd;fill:url(#SVGID_00000034068322158961469440000010993919978360499870_);}
	.st4{opacity:0.5;fill-rule:evenodd;clip-rule:evenodd;fill:#C7EFC4;enable-background:new    ;}
</style>
<linearGradient id="SVGID_1_" gradientUnits="userSpaceOnUse" x1="934.777" y1="690.9008" x2="934.1076" y2="286.1264" gradientTransform="matrix(1.1636 0 0 1.1636 -831.2302 -279.9399)">
	<stop  offset="0" style="stop-color:#F2F2F2"/>
	<stop  offset="1" style="stop-color:#F2F2F2"/>
</linearGradient>
<circle class="st0" cx="256" cy="256" r="256"/>
<radialGradient id="SVGID_00000076565550687096184330000008019773430388827276_" cx="875.8762" cy="396.2611" r="188.0468" gradientTransform="matrix(1.3584 0 0 1.652 -933.7572 -397.4579)" gradientUnits="userSpaceOnUse">
	<stop  offset="0" style="stop-color:#01FD00"/>
	<stop  offset="1" style="stop-color:#009D39"/>
</radialGradient>
<circle style="fill:url(#SVGID_00000076565550687096184330000008019773430388827276_);" cx="256" cy="256" r="226.7"/>
<path class="st2" d="M256,484.4c-61,0-118.4-23.8-161.5-66.9C51.4,374.4,27.6,317,27.6,256c0-61,23.8-118.4,66.9-161.5
	C137.6,51.3,195,27.5,256,27.5c61,0,118.4,23.8,161.5,66.9c43.1,43.1,66.9,100.5,66.9,161.5c0,61-23.8,118.4-66.9,161.5
	C374.4,460.7,317.1,484.4,256,484.4z M256,31c-124,0-225,100.9-225,225s100.9,225,225,225c124,0,225-100.9,225-225S380.1,31,256,31z
	"/>
<radialGradient id="SVGID_00000183954634481434924970000008657280406148022147_" cx="892.0043" cy="354.0406" r="65.3135" gradientTransform="matrix(2.2453 -1.2963 1.344 2.3279 -2265.7124 670.9323)" gradientUnits="userSpaceOnUse">
	<stop  offset="0" style="stop-color:#F9F9F9"/>
	<stop  offset="1" style="stop-color:#FFFFFF"/>
</radialGradient>
<path style="fill-rule:evenodd;clip-rule:evenodd;fill:url(#SVGID_00000183954634481434924970000008657280406148022147_);" d="
	M201.6,351.9l150-87.3l-150-87.3V351.9z"/>
<path class="st4" d="M347,126.5L347,126.5c-4.4-2.9-5.6-8.8-2.7-13.2l13.5-20.5c2.9-4.4,8.8-5.6,13.2-2.7l0,0
	c4.4,2.9,5.6,8.8,2.7,13.2l-13.5,20.5C357.3,128.2,351.4,129.4,347,126.5z M397.8,183.1L397.8,183.1c-2.4-4.7-0.6-10.4,4.1-12.9
	l21.8-11.2c4.7-2.4,10.4-0.6,12.9,4.1l0,0c2.4,4.7,0.6,10.4-4.1,12.9l-21.9,11.3C405.9,189.7,400.2,187.8,397.8,183.1z M402.9,258.1
	L402.9,258.1c0-6.8,5.5-12.3,12.3-12.3h31.4c6.8,0,12.3,5.5,12.3,12.3l0,0c0,6.8-5.5,12.3-12.3,12.3h-31.4
	C408.4,270.4,402.9,264.9,402.9,258.1z M394.7,335.2L394.7,335.2c2.5-4.6,8.3-6.4,12.9-3.9l21.6,11.6c4.6,2.5,6.4,8.3,3.9,12.9l0,0
	c-2.5,4.6-8.3,6.4-12.9,3.9l-21.6-11.6C393.9,345.6,392.2,339.8,394.7,335.2z M362.8,430.5L362.8,430.5c-4.5,2.8-10.4,1.4-13.1-3.1
	l-12.9-20.9c-2.8-4.5-1.4-10.4,3.1-13.1l0,0c4.5-2.8,10.4-1.4,13.1,3.1l12.9,20.9C368.7,421.8,367.3,427.7,362.8,430.5z
	 M256.4,460.5L256.4,460.5c-6.8,0-12.3-5.5-12.3-12.3v-31.4c0-6.8,5.5-12.3,12.3-12.3l0,0c6.8,0,12.3,5.5,12.3,12.3v31.4
	C268.6,455,263.1,460.5,256.4,460.5z M142.5,427.3L142.5,427.3c-4.4-2.9-5.7-8.8-2.8-13.2l13.3-20.6c2.9-4.4,8.8-5.7,13.2-2.8l0,0
	c4.4,2.9,5.7,8.8,2.8,13.2l-13.3,20.6C152.8,428.9,146.9,430.1,142.5,427.3z M72.4,349.8L72.4,349.8c-2.4-4.7-0.6-10.4,4.1-12.9
	l21.8-11.2c4.7-2.4,10.4-0.6,12.9,4.1l0,0c2.4,4.7,0.6,10.4-4.1,12.9l-21.8,11.2C80.5,356.3,74.8,354.5,72.4,349.8z M51.4,258.1
	L51.4,258.1c0-6.8,5.5-12.3,12.3-12.3h31.4c6.8,0,12.3,5.5,12.3,12.3l0,0c0,6.8-5.5,12.3-12.3,12.3H63.7
	C56.9,270.4,51.4,264.9,51.4,258.1z M77.1,155.4L77.1,155.4c2.5-4.6,8.3-6.4,12.9-3.9l21.6,11.6c4.6,2.5,6.4,8.3,3.9,12.9l0,0
	c-2.5,4.6-8.3,6.4-12.9,3.9L81,168.3C76.3,165.8,74.6,160.1,77.1,155.4z M171.2,119.5L171.2,119.5c-4.5,2.8-10.4,1.4-13.1-3.1
	l-13-20.8c-2.8-4.5-1.4-10.4,3.1-13.1l0,0c4.5-2.8,10.4-1.4,13.1,3.1l13,20.8C177.1,110.8,175.7,116.7,171.2,119.5z M273.7,110
	L273.7,110c-6.8,0-12.3-5.5-12.3-12.3V66.3c0-6.8,5.5-12.3,12.3-12.3l0,0c6.8,0,12.3,5.5,12.3,12.3v31.4
	C286,104.5,280.5,110,273.7,110z M237.9,110L237.9,110c-6.8,0-12.3-5.5-12.3-12.3V66.3c0-6.8,5.5-12.3,12.3-12.3l0,0
	c6.8,0,12.3,5.5,12.3,12.3v31.4C250.2,104.5,244.7,110,237.9,110z"/>
</svg>
